!!!!SEGMENT: pl-kk--kk-i-481--004_zangl-johann-baptist--msza-czteroglosowa-sanctus.krn
!!!cenid: 18xx:1432
!!!COM: Zangl, Johann Baptist
!!!COM-rismid: pe30084071
!!!CDT: 1821-1897
!!!CNT: Austrian; Italian
!!!OPR: Msza czterogłosowa
!!!OTL: Sanctus
!!!OMV: 004
!!!PDT:
!!!AGN: Sacred; Mass
!!!SMS-siglum: PL-Kk
!!!SMS-shelfmark: Kk.I.481
!!!SMS-shelfwork: 001-004 M
!!!SMS-variant: Tenor I Pl-Kk KK.I.481:0002; Tenor II Pl-Kk KK.I.481:0011; Bas I Pl-Kk KK.I.481:0018; Bas II Pl-Kk KK.I.481:0027
!!!SMS-altvar: Tenor I Pl-Kk KK.I.481:0006; Tenor II Pl-Kk KK.I.481:0014; Bas I Pl-Kk KK.I.481:0022; Bas II Pl-Kk KK.I.481:0031; partytura Pl-Kk KK.I.481:0035 i 0041
!!!NIFC-rismid: 1001140261
!!!URL-scan: http://repozytorium.nifc.pl/skany/pl-kk-nut--i-481
!!!ONB-nifc: UWAGA: na podstawie głosów. Proszę uzupełnić pola !!!SMS dot. partytury i głosów. Uwaga: części Mszy: 1. Kyrie, 2. Gloria, 3. Credo, 4. Sanctus, 5. Benedictus, 6. Agnus
**kern	**text	**kern	**text	**kern	**text	**kern	**text
*part4	*part4	*part3	*part3	*part2	*part2	*part1	*part1
*staff4	*staff4	*staff3	*staff3	*staff2	*staff2	*staff1	*staff1
*Iempty	*	*Iempty	*	*Itenor	*	*Itenor	*
*I"Bas II	*	*I"Bas I	*	*I"Tenor II	*	*I"Tenor I	*
*I'B II	*	*I'B I	*	*I'T II	*	*I'T I	*
*group1	*	*group1	*	*group1	*	*group1	*
*clefF4	*	*clefF4	*	*clefG2	*	*clefG2	*
*k[]	*	*k[]	*	*k[]	*	*k[]	*
*C:	*	*C:	*	*C:	*	*C:	*
*M4/4	*	*M4/4	*	*M4/4	*	*M4/4	*
*met(c)	*	*met(c)	*	*met(c)	*	*met(c)	*
=1	=1	=1	=1	=1	=1	=1	=1
!LO:TX:a:t=Maestoso	!	!LO:TX:a:t=Maestoso	!	!LO:TX:a:t=Maestoso	!	!LO:TX:a:t=Maestoso	!
1C	San-	1G	San-	1g	San-	1g	San-
=2	=2	=2	=2	=2	=2	=2	=2
2C/	-ctus	2C/	-ctus	2e/	-ctus,	2e/	-ctus.
2r	.	2r	.	2r;	.	2r;	.
=3	=3	=3	=3	=3	=3	=3	=3
1C	San-	1E	San-	1g	San-	1cc	San-
=4	=4	=4	=4	=4	=4	=4	=4
2C/	-ctus	2E\	-ctus,	2g;/	-ctus,	2g/	-ctus,
2r;	.	2r;	.	2r;	.	2r;	.
=5	=5	=5	=5	=5	=5	=5	=5
1C	San-	1G	San-	1cc	San-	1ee	San-
=6	=6	=6	=6	=6	=6	=6	=6
2C/	-ctus	2E\	-ctus	2g/	-ctus,	2cc\	-ctus,
2r	.	2r	.	2r	.	2r	.
!LO:LB:g=original	!	!	!	!	!	!	!
=7	=7	=7	=7	=7	=7	=7	=7
2GG/	Do-	2G\	Do-	2b\	Do-	2gg\	Do-
4C/	-mi-	4G\	-mi-	4cc\	-mi-	4ee\	-mi-
4E\	-nus	4G\	-nus	4cc\	-nus	4cc\	-nus
=8	=8	=8	=8	=8	=8	=8	=8
2G\	De-	2G\	De-	2b\	De-	2dd\	De-
2C/	-us	2G\	-us	2cc\	-us	2ee\	-us
!	!	!LO:LB:g=original	!	!LO:LB:g=original	!	!LO:LB:g=original	!
=9	=9	=9	=9	=9	=9	=9	=9
2.D\	Sa-	(4G\	Sa-	2.a/	Sa-	2.dd\	Sa-
.	.	4F#X\	.	.	.	.	.
.	.	4E\)	.	.	.	.	.
4D\	-ba-	4F#\	-ba-	4a/	-ba-	4dd\	-ba-
=10	=10	=10	=10	=10	=10	=10	=10
2G;\	-oth	2G\	-oth	2b;\	-oth.	2dd;\	-oth
2r	.	2r	.	2r	.	2r	.
=11||	=11||	=11||	=11||	=11||	=11||	=11||	=11||
!	!	!	!	!LO:TX:a:t=1.	!	!LO:TX:a:t=1.	!
!LO:TX:a:t=Allegro moderato	!	!LO:TX:a:t=Allegro	!	!LO:TX:a:t=Allegro	!	!LO:TX:a:t=Allegro	!
4C/	Ple-	4C/	Ple-	1r	.	1r	.
8E\	-ni	8E\	-ni	.	.	.	.
8G\	sunt	8G\	sunt	.	.	.	.
4c\	coe-	8c\L	coe-	.	.	.	.
.	.	8e\J	.	.	.	.	.
8B\	-li	8d\	-li	.	.	.	.
8A\	et	8c\	et	.	.	.	.
=12	=12	=12	=12	=12	=12	=12	=12
1G	ter-	(4B\	ter-	4b\	coe-	4dd\	coe-
.	.	4G\	.	8cc\	-li	8ee\	-li
.	.	.	.	8dd\	et	8ff\	et
.	.	4A\	.	(4ee\	ter-	(4gg\	ter-
.	.	4B\)	.	4dd\)	.	4ff\)	.
!LO:LB:g=original	!	!	!	!	!	!	!
=13	=13	=13	=13	=13	=13	=13	=13
8C/	-ra	8c\	-ra	4cc\	-ra	4ee\	-ra
8C/	coe-	8C/	coe-	.	.	.	.
8E\	-li	8E\	-li	4r	.	4r	.
8G\	et	8G\	et	.	.	.	.
4B-X\	ter-	(8B-X\L	ter-	2r	.	2r	.
.	.	8d\J)	.	.	.	.	.
8A\L	-ra	(8c\L	-ra	.	.	.	.
8G\J	.	8B-\J)	.	.	.	.	.
=14	=14	=14	=14	=14	=14	=14	=14
8F\L	glo-	(8A\L	glo-	(8dd\L	glo-	(8ff\L	glo-
8E\J	.	8G\J)	.	8ee\J)	.	8gg\J)	.
8D\	-ri-	8F\	-ri-	8ff\|	-ri-	8aa\	-ri-
8F\	-a	8A\	-a	8dd\	-a	8ff\	-a
(4G\	tu-	2G\	tu-	(4cc\	tu-	(4ee\	tu-
4GG/)	.	.	.	4b\)	.	4dd\)	.
!	!	!LO:LB:g=original	!	!	!	!	!
=15	=15	=15	=15	=15	=15	=15	=15
2C/	-a	2E\	-a	2cc\	-a	2cc\	-a
4r	.	4r	.	4r	.	4r	.
4G\	O-	4G\	O-	4g/	O-	4g/	O-
!	!	!	!	!LO:LB:g=original	!	!LO:LB:g=original	!
=16	=16	=16	=16	=16	=16	=16	=16
2F\	-san-	2G\	-san-	2b\	-san-	(4.dd\	-san-
.	.	.	.	.	.	8ee\)	.
4E\	-na	4G\	-na	4cc\	-na	4cc\	-na
8E\	in	8G\	in	8cc\	in	8cc\	in
8C/	ex-	8G\	ex-	8cc\	ex-	8ee\	ex-
!LO:LB:g=original	!	!	!	!	!	!	!
=17	=17	=17	=17	=17	=17	=17	=17
2BB/	-cel-	2G\	-cel-	2dd\	-cel-	(4.ff\	-cel-
.	.	.	.	.	.	8gg\)	.
4C/	-sis	4G\	-sis	4cc\	-sis	4ee\	-sis
4E\	O-	4G\	O-	4cc\	O-	4cc\	O-
=18	=18	=18	=18	=18	=18	=18	=18
4F\	-san-	4F\	-san-	4cc\	-san-	4dd\	-san-
4F\	-na	4F#X\	-na	4cc\	-na	4dd#X\	-na
4G\	in	4G\	in	4cc\	in	4ee\	in
4A\	ex-	4A\	ex-	4cc\	ex-	4ff\	ex-
=19	=19	=19	=19	=19	=19	=19	=19
(2G\	-cel-	1G	-cel-	(2cc\	-cel-	(2ee\	-cel-
2GG/)	.	.	.	2b\)	.	2ddn\)	.
=20	=20	=20	=20	=20	=20	=20	=20
2C/	-sis	2E\	-sis	2cc\	-sis	2cc\	-sis
4r	.	4r	.	4r	.	4r	.
4G\	O-	4G\	O-	4g/	O-	4g/	O-
=21	=21	=21	=21	=21	=21	=21	=21
2F\	-san-	2G\	-san-	2b\	-san-	(4.dd\	-san-
.	.	.	.	.	.	8ee\)	.
4E\	-na	4G\	-na	4cc\	-na	4cc\	-na
8E\	in	8G\	in	8cc\	in	8cc\	in
8C/	ex-	8G\	ex-	8cc\	ex-	8ee\	ex-
!	!	!	!	!	!	!LO:LB:g=original	!
=22	=22	=22	=22	=22	=22	=22	=22
2BB/	-cel-	2G\	-cel-	2dd\	-cel-	(4.ff\	-cel-
.	.	.	.	.	.	8gg\)	.
4C/	-sis	4G\	-sis	4cc\	-sis	4ee\	-sis
4C/	O-	4G\	O-	4cc\	<O>-	4ee\	O-
!LO:LB:g=original	!	!LO:LB:g=original	!	!LO:LB:g=original	!	!	!
=23	=23	=23	=23	=23	=23	=23	=23
4F\	-san-	4A\	-san-	4dd\	-san-	4dd\	-san-
4D\	-na	4A\	-na	4dd\	-na	4ff\	-na
4E\	in	4A\	in	4cc#X\	in	4ee\	in
4F\	ex-	4A\	ex-	4dd\	ex-	4dd\	ex-
=24	=24	=24	=24	=24	=24	=24	=24
(2G\	-cel-	(2G\	-cel-	(2ccn\	-cel-	(2ee\	-cel-
2GG/)	.	2F\)	.	2b\)	.	2dd\)	.
=25	=25	=25	=25	=25	=25	=25	=25
2C/	-sis	2E\	-sis	2cc\	-sis	2cc\	-sis
4r	.	4r	.	4r	.	4r	.
8.r	.	8.r	.	8.r	.	8.r	.
16G\	O-	16B\	O-	16dd\	O-	16dd\	O-
=26	=26	=26	=26	=26	=26	=26	=26
2G\	-san-	2B\	-san-	2dd\	-san-	2gg\	-san-
4C/	-na	4c\	-na	4cc\	-na	4ee\	-na
8.r	.	8.r	.	8.r	.	8.r	.
16G\	O-	16G\	O-	16b\	O-	16dd\	O-
=27	=27	=27	=27	=27	=27	=27	=27
1G	-san-	1G	-san-	1b	-san-	(2dd\	-san-
.	.	.	.	.	.	4.ee\	.
.	.	.	.	.	.	8dd\)	.
!	!	!	!	!	!	!LO:LB:g=original	!
=28	=28	=28	=28	=28	=28	=28	=28
4C/	-na	4C/	-na	4cc\	-na	4cc\	-na
4r	.	4r	.	4r	.	4r	.
4..c\	in	4..c\	in	4..cc\	in	4..cc\	in
16c\	ex-	16c\	ex-	16cc\	ex-	16cc\	ex-
=29	=29	=29	=29	=29	=29	=29	=29
4c\	-cel-	4c\	-cel-	4cc\	-cel-	4cc\	-cel-
4C/	-sis.	4C/	-sis	4c/	-sis	4c/	-sis
2r	.	2r	.	2r	.	2r	.
==	==	==	==	==	==	==	==
*-	*-	*-	*-	*-	*-	*-	*-
!!!system-decoration: [(g1)]
!!!AIN: 2 empty 2 tenor
!!!ENC: Anna Matuszewska
!!!END: 2021-01-31
!!!ENC: Berenika Jozajtis
!!!END: 2021-01-23
!!!RDF**kern: | = vertical stroke
